!!!ONB: MCCC : IJH0459_04 : Extracted Monophonic Melody
!!!COM: Haydn, Joseph
!!!OPR: String Quartet in G major
!!!OMV: 4
!!!SCT: Hob.III:4 ; Op.1 No.4
!!!ODT: 1757///
**kern
*thru
*k[f#]
*G:
*clefF
*M3/4
4.g
8a
4b
=1
4cc
4a
4a
=2
4b
4b
8.cc#
32b
32cc#
=3
2dd
4r
=4
4ee
4ee
8.ff#
32ee
32ff#
=5
4gg
8.gg
16aa
8.bb
16ccc
=6
4ddd
4ccc
8.bb
32aa
32bb
=7
4aa
2r
=8
4.aa
8bb
4ccc
=9
8.bb
32aa
32bb
4ddd
4r
=10
4.ff#
8gg
4aa
=11
8gg
16ff#
16ee
4dd
4r
=12
4.a
8b
4cc
=13
8.b
32a
32b
4dd
4r
=14
4.dd
8cc
4b
=15
4b
4a
4r
=16
4.g
8a
4b
=17
4cc
4a
4a
=18
4b
4b
8.cc#
32b
32cc#
=19
2dd
4r
=20
4ee
4ee
8.ff#
32ee
32ff#
=21
4gg
8.gg
16aa
8.bb
16ccc
=22
4ddd
4ddd
4ddd
=23
4.ccc
8aa
4bb
=24
4aa
4gg
4ff#
=25
2gg
4r
=26
4g
8dd
8cc
8b-
8a
=27
4.b-
8a
8g
8f#
=28
4g
8dd
8cc
8b-
8a
=29
4.b-
8a
8g
8f#
=30
4g
4b-
4dd
=31
4gg
4dd
4cc
=32
2b-
4a
=33
4g
4ee-
4dd
=34
4.cc
8a
4b-
=35
4.cc
8a
4b-
=36
12gg
12ff
12ee-
4dd
4cc
=37
2b-
4r
=38
4b-
8ff
8ee-
8dd
8cc
=39
4.dd
8cc
8b-
8a
=40
4b-
2b
=41
4cc
8gg
8ff
8ee-
8dd
=42
4.ee-
8dd
8cc
8b
=43
4cc
2cc#
=44
4dd
4r
4ee-
=45
4ee-
2dd[
=46
4dd]
2cc[
=47
4cc]
8b-
8a
8g
8f
=48
8e-
8d
8c
8B-
8A
8G
=49
4d
2r
=50
4g
8dd
8cc
8b-
8a
=51
4.b-
8a
8g
8f#
=52
4g
8dd
8cc
8b-
8a
=53
4b-
8gg
8ff
8ee-
8dd
=54
4ee-
8ccc
8bb-
8aa
8gg
=55
2ff#
4gg
=56
12ee-
12dd
12cc
4b-
4a
=57
2g
4r
==
*-
